X: 4
T: La Bastringue
R: reel
M: 4/4
L: 1/8
K: Dmaj
Q: 1/4=200
|:"D" f2 ff f2gf| "A" e2c2 "D" d3 d| "A" c2d2 (ef)ec| "D" ud2ue2 f2 d2 |
f2 ff f2 gf| "A" e2c2 "D" d3d | "G" g2 ((3fgf e2)d2 |1 "A" (B2c2) "D" d2A2 :|2 "A" (B2c2) "D" d2 ((3ABc ||
|: "D" d2)(fd) adfd | "C" ((3=cdc) ec gcec | "D" d2(fd) adfa | "A" bge(c "D" dcBA) | d2(fd) adfd |
"C" ((3=cdc) ec gcec |1 "D" d2(fd) adfa | "A" bge(c "D" dcBA) :|2 "D" Adfa "G" bgec | "A" dfec "D" d4 |]
W: Guitar: strum on half notes
W: From Fiddler's Fake Book,  with Kate's modifications

